Bloom-Colors/scalable/actions/keyboard-caps-lock-filled-symbolic.svg

<svg width="16" height="16" version="1.1" xmlns="http://www.w3.org/2000/svg">
<path d="m8 1-7 8h4v3h6v-3h4l-7-8zm-3 12v2h6v-2h-6z" fill="#666"/>
</svg>

<svg xmlns="http://www.w3.org/2000/svg" width="16" height="16" version="1.1">
 <path style="fill:#444444" d="M 8 1 L 1 9 L 5 9 L 5 12 L 11 12 L 11 9 L 15 9 L 8 1 z M 5 13 L 5 15 L 11 15 L 11 13 L 5 13 z"/>
</svg>
